packages/ffe-icons/icons/open/300/sm/videogame_asset.svg

<svg xmlns="http://www.w3.org/2000/svg" height="20" viewBox="0 -960 960 960" width="20"><path d="M180.309-260.001q-27.008 0-45.658-19-18.65-19-18.65-45.435v-311.128q0-26.435 18.65-45.435 18.65-19 45.658-19h599.382q27.008 0 45.658 19 18.65 19 18.65 45.435v311.128q0 26.435-18.65 45.435-18.65 19-45.658 19H180.309Zm0-51.999h599.382q4.616 0 8.463-3.846 3.846-3.847 3.846-8.463v-311.382q0-4.616-3.846-8.463-3.847-3.846-8.463-3.846H180.309q-4.616 0-8.463 3.846-3.846 3.847-3.846 8.463v311.382q0 4.616 3.846 8.463 3.847 3.846 8.463 3.846Zm119.692-142.001V-396q0 11.05 7.418 18.524 7.418 7.475 18.384 7.475 10.966 0 18.581-7.475 7.615-7.474 7.615-18.524v-58.001H410q11.05 0 18.524-7.418 7.475-7.418 7.475-18.384 0-10.966-7.475-18.581-7.474-7.615-18.524-7.615h-58.001V-564q0-11.05-7.418-18.524-7.418-7.475-18.384-7.475-10.966 0-18.581 7.475-7.615 7.474-7.615 18.524v58.001H242q-11.05 0-18.524 7.418-7.475 7.418-7.475 18.384 0 10.966 7.475 18.581 7.474 7.615 18.524 7.615h58.001Zm275.954 72q20.814 0 35.429-14.57 14.615-14.57 14.615-35.384t-14.57-35.429q-14.57-14.615-35.384-14.615t-35.429 14.57q-14.615 14.57-14.615 35.384t14.57 35.429q14.57 14.615 35.384 14.615Zm120-96q20.814 0 35.429-14.57 14.615-14.57 14.615-35.384t-14.57-35.429q-14.57-14.615-35.384-14.615t-35.429 14.57q-14.615 14.57-14.615 35.384t14.57 35.429q14.57 14.615 35.384 14.615ZM168-312V-648-312Z"/></svg>

<svg xmlns="http://www.w3.org/2000/svg" height="20" viewBox="0 -960 960 960" width="20"><path d="M180.31-260q-27.01 0-45.66-19Q116-298 116-324.44v-311.12Q116-662 134.65-681q18.65-19 45.66-19h599.38q27.01 0 45.66 19Q844-662 844-635.56v311.12Q844-298 825.35-279q-18.65 19-45.66 19H180.31Zm0-52h599.38q4.62 0 8.46-3.85 3.85-3.84 3.85-8.46v-311.38q0-4.62-3.85-8.46-3.84-3.85-8.46-3.85H180.31q-4.62 0-8.46 3.85-3.85 3.84-3.85 8.46v311.38q0 4.62 3.85 8.46 3.84 3.85 8.46 3.85ZM300-454v58q0 11.05 7.42 18.52 7.42 7.48 18.38 7.48 10.97 0 18.58-7.48Q352-384.95 352-396v-58h58q11.05 0 18.52-7.42 7.48-7.42 7.48-18.38 0-10.97-7.48-18.58Q421.05-506 410-506h-58v-58q0-11.05-7.42-18.52-7.42-7.48-18.38-7.48-10.97 0-18.58 7.48Q300-575.05 300-564v58h-58q-11.05 0-18.52 7.42-7.48 7.42-7.48 18.38 0 10.97 7.48 18.58Q230.95-454 242-454h58Zm275.95 72q20.82 0 35.43-14.57Q626-411.14 626-431.95q0-20.82-14.57-35.43Q596.86-482 576.05-482q-20.82 0-35.43 14.57Q526-452.86 526-432.05q0 20.82 14.57 35.43Q555.14-382 575.95-382Zm120-96q20.82 0 35.43-14.57Q746-507.14 746-527.95q0-20.82-14.57-35.43Q716.86-578 696.05-578q-20.82 0-35.43 14.57Q646-548.86 646-528.05q0 20.82 14.57 35.43Q675.14-478 695.95-478ZM168-312v-336 336Z"/></svg>
